X:18
T:Put up thy dagor Jennie
Z:Jack Campin - http://www.campin.me.uk
S:Blaikie MS (NLS MS.1578) p7, Blaikie #17
M:C
L:1/8
V:1 midi program 1 74
V:2 midi program 1 46 bass middle = d transpose -24
Q:1/4=120
K:G
[V:1] FG|A3 G   F2  E2 |D2A2  A2 Bc|d2 c2 B2A2|G2d2 d2d2|
[V:2] z2|f2e2   d2  A2 |d2f2  d2 g2|f4    g2a2|b4   g4  |
%
[V:1]    eded   Bc``dB |cBAG  F2 D2|GA`Bc dcBA|G2G4    ||
[V:2]    G2g2   G2  g2 |G2B2  d2 f2|g2 e2 c2d2|G2g2 G2 ||
%
[V:1] G2|d2d2   e2  f2 |g2f2  e2 d2|e2 d2 c2B2|c2B2 A2G2|
[V:2] z2|d2d'2 ^c'2=c'2|b2d'2 c'2b2|c'2b2 a2g2|f2g2 d2g2|
%
[V:1]    F2G2   A2  F2 |G2A2  B2 c2|d2 c2 B2A2|B2G2 G2 |]
[V:2]    d4     c4     |B2A2  G2 A2|B2 c2 d2D2|G2g2 g2 |]
W:Transcription (c) Jack Campin 2009, no mirroring or republication without permission

